!!!!SEGMENT: pl-kk--kk-i-1--021_anonim--communio-diffusa-est-gratia.krn
!!!cenid: 15xx:734
!!!COM: Anonim
!!!COM-rismid: pe30004985
!!!CDT:
!!!CNT:
!!!OTL: Communio/Diffusa est gratia
!!!PDT:
!!!AGN:
!!!SMS-siglum: PL-Kk
!!!SMS-shelfmark: Kk.I.1
!!!SMS-shelfwork: 021 W
!!!SMS-variant:
!!!SMS-altvar:
!!!NIFC-rismid: 300257975
!!!URL-scan: http://repozytorium.nifc.pl/skany/pl-kk-nut--i-1
!!!ONB-nifc: UWAGA: Cantus (s. 106r-v, skan 0108-0109), Altus (s. 101r-102r, skan 0294-0295), Tenor (s. 94r-v, skan 0484-0485), Bassus (s. 99v-100r, skan 0662).
!!!key: F
**kern	**text	**kern	**text	**kern	**text	**kern	**text
*part4	*part4	*part3	*part3	*part2	*part2	*part1	*part1
*staff4	*staff4	*staff3	*staff3	*staff2	*staff2	*staff1	*staff1
*I"BASSVS	*	*I"TENOR	*	*I"ALTVS	*	*I"CANTVS	*
*I'B	*	*I'T	*	*I'A	*	*I'C	*
*Ibass	*	*Itenor	*	*Ialto	*	*Isoprn	*
*ICvox	*	*ICvox	*	*ICvox	*	*ICvox	*
*clefF4	*	*clefC5	*	*clefC4	*	*clefC3	*
*k[b-]	*	*k[b-]	*	*k[b-]	*	*k[b-]	*
*F:	*	*F:	*	*F:	*	*F:	*
*M2/1	*	*M2/1	*	*M2/1	*	*M2/1	*
*met(C)	*	*met(C)	*	*met(C)	*	*met(C)	*
=1-	=1-	=1-	=1-	=1-	=1-	=1-	=1-
!LO:TX:a:t=Co(mmun)io:color=red	!	!LO:TX:a:t=Com(m)unio:color=red	!	!LO:TX:a:t=Com(m)u(n)io:color=red	!	!LO:TX:a:t=Co(mmun)io:color=red	!
1C	Dif-	1C	Dif-	2r	.	2.c/	Dif-
.	.	.	.	1c	Dif-	.	.
.	.	.	.	.	.	4B-/	.
*lig	*	*lig	*	*	*	*	*
1D	-fu-	1F	-fu-	.	.	4A/	.
.	.	.	.	.	.	4F/	.
.	.	.	.	2B-\	-fu-	1f\	.
=2-	=2-	=2-	=2-	=2-	=2-	=2-	=2-
1C	.	1G	.	2.c\	.	.	.
.	.	.	.	.	.	2e\	.
.	.	.	.	4B-\	.	.	.
*Xlig	*	*Xlig	*	*	*	*	*
2.D/	-ſa	1F	-ſa	4A/	.	2.f\	.
.	.	.	.	4G/	.	.	.
.	.	.	.	2A/	.	.	.
4C/	.	.	.	.	.	4e\	-fu-
=3-	=3-	=3-	=3-	=3-	=3-	=3-	=3-
!	!	!	!	!LO:SIC:v:t=custos F	!	!	!
2BB-/	.	1F	eſt	2D/	-ſa	2d/	.
!	!	!	!	!LO:LB:g=original	!	!	!
2AA/	.	.	.	1F	.	2c/	.
*	*	*lig	*	*	*	*	*
1GG	eſt	1G	gra-	.	.	1B-	-ſa
.	.	.	.	2E/	eſt	.	.
=4-	=4-	=4-	=4-	=4-	=4-	=4-	=4-
2FF/	.	1A	.	1F	.	2A/	eſt
*	*	*	*	*	*	*	*ij
1F	gra-	.	.	.	.	2c/	dif-
*	*	*Xlig	*	*	*	*	*
*	*	*lig	*	*	*	*	*
.	.	1G	.	1r	.	2d\	-fu-
2E\	-ti-	.	.	.	.	2e\	-ſa
=5-	=5-	=5-	=5-	=5-	=5-	=5-	=5-
!	!	!	!	!	!	!LO:SIC:v:t=custos c	!
1F	-a	1A	.	1r	.	2c/	eſt
*	*	*	*	*	*	*	*Xij
!	!	!	!	!	!	!LO:LB:g=original	!
.	.	.	.	.	.	2.c/	gra-
*	*	*Xlig	*	*	*	*	*
1C	gra-	1G	-ti-	2r	.	.	.
.	.	.	.	.	.	4d\	.
.	.	.	.	1c\	gra-	4e\	.
.	.	.	.	.	.	4c/	.
=6-	=6-	=6-	=6-	=6-	=6-	=6-	=6-
*	*	*lig	*	*	*	*	*
1D	-ti-	1F	-a	.	.	4d\	.
.	.	.	.	.	.	4e\	.
.	.	.	.	2B-\	-ti-	1f	-ti-
!LO:SIC:v:t=custos D	!	!LO:SIC:v:t=custos F	!	!	!	!	!
1C	-a	1G	.	2.c\	-a	.	.
.	.	.	.	.	.	2e\	-a
.	.	.	.	4B-\	.	.	.
*	*	*Xlig	*	*	*	*	*
!LO:LB:g=original	!	!LO:PB:g=original	!	!	!	!	!
=7-	=7-	=7-	=7-	=7-	=7-	=7-	=7-
*	*	*lig	*	*	*	*	*
1D	in	1F	.	2A/	.	2f\	.
.	.	.	.	1B-	in	1d	in
4GG/	la-	1D	.	.	.	.	.
4AA/	.	.	.	.	.	.	.
4BB-/	.	.	.	4A/	.	4c/	.
4C/	.	.	.	4G/	.	4B-/	.
*	*	*Xlig	*	*	*	*	*
=8-	=8-	=8-	=8-	=8-	=8-	=8-	=8-
2D/	-bi-	1D	in	2F/	.	2A/	.
2GG/	-is	.	.	1G	la-	2B-/	la-
*	*ij	*lig	*	*	*	*	*
1D	in	1D	la-	.	.	1A	-bi-
.	.	.	.	2F/	-bi-	.	.
=9-	=9-	=9-	=9-	=9-	=9-	=9-	=9-
2.GG/	la-	1G	.	2G/	-js	2B-/	-is
*	*	*	*	*	*	*	*ij
.	.	.	.	2.D/	.	1d	in
4AA/	.	.	.	.	.	.	.
*	*	*Xlig	*	*	*	*	*
2BB-/	.	1F	.	.	.	.	.
.	.	.	.	4E/	.	.	.
2AA/	.	.	.	1F/	.	2c/	.
=10-	=10-	=10-	=10-	=10-	=10-	=10-	=10-
*	*	*lig	*	*	*	*	*
1GG	.	1G	.	.	.	2.B-/	la-
!	!	!	!	!LO:SIC:v:t=custos F	!	!	!
.	.	.	.	2E/	.	.	.
.	.	.	.	.	.	4c/	.
!	!	!	!	!LO:LB:g=original	!	!	!
2.FF/	-bi-	1A	.	1F	.	2d\	.
.	.	.	.	.	.	4c\	.
!	!	!	!	!	!	!LO:SIC:v:t=custos c	!
4GG/	.	.	.	.	.	4B-/	.
*	*	*Xlig	*	*	*	*	*
!	!	!	!	!	!	!LO:LB:g=original	!
=11-	=11-	=11-	=11-	=11-	=11-	=11-	=11-
2AA/	.	1F	-bi-	2r	.	2c/	.
1BB-	.	.	.	1B-	tu-	1d	.
.	.	1F	-is	.	.	.	.
2C/	-is	.	.	2.A/	.	1c\	.
*	*Xij	*	*	*	*	*	*
=12-	=12-	=12-	=12-	=12-	=12-	=12-	=12-
*lig	*	*lig	*	*	*	*	*
1D	tu-	1F	tu-	.	.	.	.
.	.	.	.	4G/	.	.	.
.	.	.	.	1F	.	2B-/	-bi-
1C	.	1G	.	.	.	0c	-is
*	*	*	*	*	*	*	*Xij
.	.	.	.	2E/	.	.	.
*Xlig	*	*Xlig	*	*	*	*	*
=13-	=13-	=13-	=13-	=13-	=13-	=13-	=13-
*	*	*lig	*	*	*	*	*
2FF/	-is	1A	.	1F	-is	.	.
!LO:SIC:v:t=custos E	!	!	!	!	!	!	!
1F	tu-	.	.	.	.	.	.
.	.	1G	.	2C/	.	2r	.
!LO:LB:g=original	!	!	!	!	!	!	!
2E\	-is	.	.	2G/	tu-	2c/	tu-
*	*	*Xlig	*	*	*	*	*
=14-	=14-	=14-	=14-	=14-	=14-	=14-	=14-
*	*	*lig	*	*	*	*	*
1D	.	1F	.	2A/	.	4d\	.
.	.	.	.	.	.	4e\	.
.	.	.	.	2B-/	.	4f\	.
.	.	.	.	.	.	4d\	.
2C/	.	1G	.	2c\	.	2e\	.
2BB-/	.	.	.	2d\	.	1f\	.
*	*	*Xlig	*	*	*	*	*
=15-	=15-	=15-	=15-	=15-	=15-	=15-	=15-
*	*	*lig	*	*	*	*	*
1C	.	1G	-is	1c	.	.	.
.	.	.	.	.	.	2e\	-is
2FF/	.	1F	.	2A/	-is	1f	.
2BB-/	prop-	.	.	2d\	prop-	.	.
*	*	*Xlig	*	*	*	*	*
=16-	=16-	=16-	=16-	=16-	=16-	=16-	=16-
*	*	*lig	*	*	*	*	*
2AA/	-ter-	1F	prop-	2c\	-te-	2r	.
2BB-/	-e-	.	.	1B-	-re-	1d	prop-
2GG/	-a	1G	.	.	.	.	.
*	*ij	*	*	*	*	*	*
2C/	prop-	.	.	2G/	-a	2c/	.
!	!	!	!	!LO:SIC:v:t=custos c	!	!	!
*	*	*Xlig	*	*	*	*	*
=17-	=17-	=17-	=17-	=17-	=17-	=17-	=17-
2BB-/	-ter-	1G	-ter-	2r	.	2d\	-te-
!	!	!	!	!LO:LB:g=original	!	!	!
2C/	-e-	.	.	2c\	prop-	2e\	-re-
*	*	*lig	*	*	*	*	*
2FF/	-a	1A	.	2.c\	-ter-	1.f	.
*	*Xij	*	*	*	*	*	*
1F\	prop-	.	.	.	.	.	.
.	.	.	.	4B-\	-e-	.	.
=18-	=18-	=18-	=18-	=18-	=18-	=18-	=18-
.	.	1c	.	2A/	-a	.	.
!	!	!	!	!	!	!LO:SIC:v:t=custos d	!
2C/	-ter-	.	.	2G/	.	2e\	.
*	*	*Xlig	*	*	*	*	*
!	!	!	!	!	!	!LO:LB:g=original	!
*	*	*lig	*	*	*	*	*
1D	-e-	1A	-e-	2.F/	.	2.d\	.
.	.	.	.	4G/	.	4e\	.
=19-	=19-	=19-	=19-	=19-	=19-	=19-	=19-
!	!	!LO:SIC:v:t=custos G	!	!	!	!	!
2AA/	-a	1c	.	1A	.	2f\	.
*	*ij	*	*	*	*	*	*
2AA/	prop-	.	.	.	.	2e\	.
*	*	*Xlig	*	*	*	*	*
!LO:SIC:v:t=custos C	!	!LO:LB:g=original	!	!	!	!	!
2BB-/	.	1G	.	2D/	.	2d\	.
*	*	*	*	*	*ij	*	*
!LO:LB:g=original	!	!	!	!	!	!	!
2C/	-ter-	.	.	2E/	prop-	1c\	.
=20-	=20-	=20-	=20-	=20-	=20-	=20-	=20-
*	*	*lig	*	*	*	*	*
1D	-e-	1F	.	2D/	 ter-	.	.
.	.	.	.	1F	-e-	2B-/	.
0C	.	1G	.	.	.	0c	-a
.	.	.	.	4E/	.	.	.
.	.	.	.	4D/	.	.	.
*	*	*Xlig	*	*	*	*	*
=21-	=21-	=21-	=21-	=21-	=21-	=21-	=21-
*	*	*lig	*	*	*	*	*
.	.	1G	-a	1E	.	.	.
*	*	*	*	*	*	*lig	*
1FF	-a	1F	.	2F/	-a	1c	be-
*	*Xij	*	*	*	*Xij	*	*
.	.	.	.	2A/	be-	.	.
*	*	*Xlig	*	*	*	*	*
=22-	=22-	=22-	=22-	=22-	=22-	=22-	=22-
*	*	*lig	*	*	*	*	*
1BB-	be-	1F	be-	2.B-\	-ne-	1d	.
.	.	.	.	4c\	.	.	.
*	*	*	*	*	*	*Xlig	*
!	!	!	!	!LO:SIC:v:t=custos B-	!	!	!
2GG/	-ne-	1G	.	2d\	.	2B-/	-ne-
!	!	!	!	!LO:LB:g=original	!	!	!
2GG/	-di-	.	.	1B-\	-di-	1d\	-di-
*	*	*Xlig	*	*	*	*	*
=23-	=23-	=23-	=23-	=23-	=23-	=23-	=23-
1BB-	-xit	1F	-ne-	.	.	.	.
.	.	.	.	4A/	-xit	4c/	.
.	.	.	.	4G/	.	4B-/	.
*	*	*lig	*	*	*	*	*
2FF/	te	1F	-di-	1A	.	1c	.
*	*ij	*	*	*	*	*	*
1F\	be-	.	.	.	.	.	.
=24-	=24-	=24-	=24-	=24-	=24-	=24-	=24-
.	.	1G	.	2r	.	1c	-xit
2E\	-ne-	.	.	2G/	.	.	.
*	*	*Xlig	*	*	*	*	*
2.D/	-di-	1F	-xit	2A/	be-	2.f\	be-
.	.	.	.	1B-\	-ne-	.	.
4C/	.	.	.	.	.	4e\	.
=25-	=25-	=25-	=25-	=25-	=25-	=25-	=25-
2BB-/	.	1F	te	.	.	2d\	.
2AA/	.	.	.	2c\	.	2c/	.
*	*	*lig	*	*	*	*	*
1BB-	-xit	1D	De-	1B-	-di-	1d	-ne-
=26-	=26-	=26-	=26-	=26-	=26-	=26-	=26-
!	!	!	!	!	!	!LO:SIC:v:t=custos c	!
1C	te	1E	.	1G	-xit	1c	-di-
*	*Xij	*Xlig	*	*	*	*	*
!	!	!	!	!	!	!LO:PB:g=original	!
1FF	De-	1F	.	1A	.	0c	-xit
=27-	=27-	=27-	=27-	=27-	=27-	=27-	=27-
!LO:SIC:v:t=custos F	!	!	!	!	!	!	!
1C	-us	1E	.	2G/	te	.	.
.	.	.	.	1c	De-	.	.
1r	.	1D	.	.	.	2d\	.
.	.	.	.	4B-\	.	1f\	.
.	.	.	.	4A/	.	.	.
=28-	=28-	=28-	=28-	=28-	=28-	=28-	=28-
*	*	*lig	*	*	*	*	*
2r	.	1D	-us	1B-	.	.	.
2F\	in	.	.	.	.	4e\	De-
.	.	.	.	.	.	4d\	.
!	!LO:LB:g=original	!	!	!	!	!	!
1G	ae-	1C	.	1c	-us	1e	.
*	*	*Xlig	*	*	*	*	*
=29-	=29-	=29-	=29-	=29-	=29-	=29-	=29-
*	*	*lig	*	*	*	*	*
2F\	-ter-	1F	in	2A/	in	2c/	-us
!	!	!	!	!LO:SIC:v:t=custos c	!	!	!
2D/	.	.	.	2B-/	ae-	2d/	in
!	!	!	!	!LO:LB:g=original	!	!	!
0C	.	1E	.	0.c	-ter-	2e\	(ae)-
.	.	.	.	.	.	4c/	-ter-
.	.	.	.	.	.	4d/	.
*	*	*Xlig	*	*	*	*	*
=30-	=30-	=30-	=30-	=30-	=30-	=30-	=30-
*	*	*lig	*	*	*	*	*
.	.	1G	ae-	.	.	4e\	.
.	.	.	.	.	.	4f\	.
.	.	.	.	.	.	4g\	.
.	.	.	.	.	.	4e\	.
0FF	-num	1A	.	.	.	1.f	.
*	*	*Xlig	*	*	*	*	*
=31-	=31-	=31-	=31-	=31-	=31-	=31-	=31-
*	*	*lig	*	*	*	*	*
.	.	1c	.	2.A/	-num	.	.
.	.	.	.	.	.	4e\	.
.	.	.	.	4B-\	.	4d\	-nŭm
!	!	!LO:SIC:v:t=custos G	!	!	!	!	!
2r	.	1A	.	2c\	.	1e	.
*	*	*	*	*	*ij	*	*
2AA/	in	.	.	2C/	in	.	.
*	*	*Xlig	*	*	*	*	*
!	!	!LO:LB:g=original	!	!	!	!	!
=32-	=32-	=32-	=32-	=32-	=32-	=32-	=32-
2BB-/	ae-	1G	.	2D/	ae-	1r	.
2C/	-ter-	.	.	2E/	.	.	.
*	*	*lig	*	*	*	*	*
2FF/	.	1A	.	2C/	.	2r	.
2AA/	-num	.	.	1F/	-ter-	2c/	in
=33-	=33-	=33-	=33-	=33-	=33-	=33-	=33-
!	!	!	!	!	!	!LO:SIC:v:t=custos e	!
1GG	.	1B-	.	.	.	2d/	ae-
!	!	!	!	!	!	!LO:LB:g=original	!
.	.	.	.	2E/	.	2e\	-ter-
*	*	*Xlig	*	*	*	*	*
*	*	*lig	*	*	*	*	*
1FF	.	1A	.	2F/	-num	2c/	.
*	*	*	*	*	*Xij	*	*
.	.	.	.	2A/	in	1f\	-nŭm
=34-	=34-	=34-	=34-	=34-	=34-	=34-	=34-
2r	.	1G	.	2B-\	ae-	.	.
*	*ij	*	*	*	*	*	*
2C/	in	.	.	2c\	.	2e\	.
*	*	*Xlig	*	*	*	*	*
*	*	*lig	*	*	*	*	*ij
2D/	ae-	1F	-ter-	2F/	-ter-	2d\	in
1F\	-ter-	.	.	2A/	-num	4c/	.
.	.	.	.	.	.	4B-/	.
=35-	=35-	=35-	=35-	=35-	=35-	=35-	=35-
.	.	1G	.	1G	.	1c	ae-
2E\	.	.	.	.	.	.	.
*	*	*Xlig	*	*	*	*	*
!LO:SIC:v:t=custos C	!	!	!	!	!	!	!
*	*	*lig	*	*	*	*	*
1F	.	1A	.	4F/	.	4A/	.
.	.	.	.	4G/	.	4B-/	.
.	.	.	.	4A/	.	4c/	.
!	!	!	!	!LO:SIC:v:t=custos c	!	!	!
.	.	.	.	4B-/	.	4d/	.
!LO:LB:g=original	!	!	!	!LO:LB:g=original	!	!	!
=36-	=36-	=36-	=36-	=36-	=36-	=36-	=36-
*lig	*	*	*	*	*	*	*
1C	.	1G	.	4c\	.	4e\	.
.	.	.	.	4d\	.	4f\	.
.	.	.	.	1c	.	4g\	.
.	.	.	.	.	.	4e\	.
*	*	*Xlig	*	*	*	*	*
*	*	*lig	*	*	*	*	*
1D	.	1F	.	.	.	2f\	.
.	.	.	.	2B-\	.	2d/	.
*Xlig	*	*	*	*	*	*	*
=37-	=37-	=37-	=37-	=37-	=37-	=37-	=37-
2C/	.	1G	.	2c\	.	2e\	.
2BB-/	.	.	.	2d\	.	1f	-ter-
*	*	*Xlig	*	*	*	*	*
*	*	*lig	*	*	*	*	*
1C	.	1G	-num	1c	.	.	.
.	.	.	.	.	.	2e\	.
=38-	=38-	=38-	=38-	=38-	=38-	=38-	=38-
!	!	!	!	!	!	!LO:SIC:v:t=custos f	!
2FF/	-num	000F;	.	2A/	.	2f\	-nŭm
*	*Xij	*	*	*	*	*	*Xij
!	!	!	!	!	!	!LO:LB:g=original	!
1BB-	in	.	.	1d	in	1f	in
2C/	ae-	.	.	2c\	ae-	2e\	ae-
*	*	*Xlig	*	*	*	*	*
=39-	=39-	=39-	=39-	=39-	=39-	=39-	=39-
2D/	-ter-	.	.	2B-\	-ter-	2d\	-ter-
2E\	-nu(m)	.	.	4A/	.	4c/	.
.	.	.	.	4G/	-nŭm	4B-/	.
2F\	.	.	.	2F/	.	2.A/	.
2.FF/	in	.	.	1f\	in	.	.
.	.	.	.	.	.	4G/	-nŭm
=40-	=40-	=40-	=40-	=40-	=40-	=40-	=40-
.	.	.	.	.	.	2F/	.
4GG/	.	.	.	.	.	.	.
2AA/	ae-	.	.	2e\	ae-	2c/	in
2BB-/	-ter-	.	.	2d\	-ter-	2B-/	ae-
2AA/	.	.	.	2c\	.	2c/	.
=41-	=41-	=41-	=41-	=41-	=41-	=41-	=41-
1BB-	-num	.	.	1B-	-num,	1d	-ter-
!LO:N:vis=000	!	!	!	!LO:N:vis=000	!	!LO:N:vis=000	!
1FF/	.	.	.	1A;	.	1c;	-num
=-	=-	=-	=-	=-	=-	=-	=-
*-	*-	*-	*-	*-	*-	*-	*-
!!!system-decoration: [(s1,s2,s3,s4)]
!!!ENC: Mateusz Solarz
!!!END: 2022-02-24
!!!AIN: 1 alto 1 bass 1 soprn 1 tenor
!!!ENC: Urszula Świątek
!!!END: 2022-03-19
